X: 40453
T: Tom Sullivan's
R: polka
M: 2/4
K: Dmixolydian
|:DE|FG AB|cA AG|Ad d^c|d2- de|
fd ed|cA Ad|c/B/A GE|D2:|
|:Ag|fd ed|cA Ag|fd d/e/f|g2 ag|
fd e>d|cA- Ad|c>A GE|D2:|

